X: 28881
T: Mystery Inch, The
R: jig
M: 6/8
K: Amajor
|:Fca gec|eff ecB|ABc ecA|BBA BGA|
Fca gec|efa ecB|ABc eag|1 fge cef:|2 fge cBA||
DAc BAE|cBA FAc|Bce ~e3|feB cAF|
DAc BAF|EAc BAF|GBe gbg|ece fcB|
AFE DcB|AFE cBA|FAc ~e3|feB cAF|
DAc BAF|EAc BAF|GB e gbg|ece fcA||

